public/images/icons/Colour-wheel.svg

<svg width="253" height="203" viewBox="0 0 253 203" fill="none" xmlns="http://www.w3.org/2000/svg">
<circle cx="105" cy="144" r="46.5" fill="#DEEEEB" stroke="#5B5B5B" stroke-width="25"/>
<circle cx="59" cy="60" r="53.5" fill="#7FA1C5" stroke="#5B5B5B" stroke-width="11"/>
<path d="M199.147 114.263C188.109 120.636 176.694 123.428 167.32 123.035C157.866 122.639 151.316 119.119 148.262 113.83C145.208 108.54 145.435 101.108 149.819 92.7229C154.166 84.4082 162.291 75.9189 173.33 69.5457C184.369 63.1724 195.783 60.3804 205.158 60.773C214.612 61.169 221.161 64.6887 224.215 69.9783C227.269 75.2679 227.043 82.7001 222.659 91.0853C218.311 99.4 210.186 107.889 199.147 114.263Z" fill="#E67E87" stroke="#5B5B5B" stroke-width="11"/>
<path d="M166.903 71.307C160.529 82.3458 152.04 90.471 143.725 94.8182C135.34 99.2022 127.908 99.4289 122.618 96.3749C117.329 93.321 113.809 86.7712 113.413 77.3174C113.02 67.943 115.812 56.5285 122.186 45.4897C128.559 34.4509 137.048 26.3257 145.363 21.9785C153.748 17.5945 161.18 17.3678 166.47 20.4218C171.76 23.4757 175.279 30.0255 175.675 39.4793C176.068 48.8537 173.276 60.2682 166.903 71.307Z" fill="#FFC266" stroke="#5B5B5B" stroke-width="11"/>
<path d="M203.5 118.5C216.301 118.5 227.63 121.76 235.583 126.741C243.612 131.769 247.5 138.015 247.5 144C247.5 149.985 243.612 156.231 235.583 161.259C227.63 166.24 216.301 169.5 203.5 169.5C190.699 169.5 179.37 166.24 171.417 161.259C163.388 156.231 159.5 149.985 159.5 144C159.5 138.015 163.388 131.769 171.417 126.741C179.37 121.76 190.699 118.5 203.5 118.5Z" fill="#D0E495" stroke="#5B5B5B" stroke-width="11"/>
</svg>

<svg xmlns="http://www.w3.org/2000/svg" width="253" height="203" fill="none" stroke="#5b5b5b"  xmlns:v="https://vecta.io/nano"><circle cx="105" cy="144" r="46.5" fill="#deeeeb" stroke-width="25"/><g stroke-width="11"><circle cx="59" cy="60" r="53.5" fill="#7fa1c5"/><path d="M199.147 114.263c-11.038 6.373-22.453 9.165-31.827 8.772-9.454-.396-16.004-3.916-19.058-9.205s-2.827-12.722 1.557-21.107c4.347-8.315 12.472-16.804 23.511-23.177s22.453-9.165 31.828-8.773c9.454.396 16.003 3.916 19.057 9.205s2.828 12.722-1.556 21.107c-4.348 8.315-12.473 16.804-23.512 23.178z" fill="#e67e87"/><path d="M166.903 71.307c-6.374 11.039-14.863 19.164-23.178 23.511-8.385 4.384-15.817 4.611-21.107 1.557s-8.809-9.604-9.205-19.057c-.393-9.374 2.399-20.789 8.773-31.828s14.862-19.164 23.177-23.511c8.385-4.384 15.817-4.611 21.107-1.557s8.809 9.604 9.205 19.058c.393 9.374-2.399 20.789-8.772 31.828z" fill="#ffc266"/><path d="M203.5 118.5c12.801 0 24.13 3.26 32.083 8.241 8.029 5.028 11.917 11.274 11.917 17.259s-3.888 12.231-11.917 17.259c-7.953 4.981-19.282 8.241-32.083 8.241s-24.13-3.26-32.083-8.241C163.388 156.231 159.5 149.985 159.5 144s3.888-12.231 11.917-17.259c7.953-4.981 19.282-8.241 32.083-8.241z" fill="#d0e495"/></g></svg>
